!!!COM: Beethoven, Ludwig van
!!!CDT: 1770///-1827///
!!!OTL: Piano Sonata no. 1 in F minor
!!!OMD: Adagio
!!!OPS: 2
!!!ONM: 1
!!!OMV: 2
**kern	**kern	**dynam
*Ipiano	*Ipiano	*Ipiano
*clefF4	*clefG2	*clefG2
*k[b-]	*k[b-]	*k[b-]
*F:	*F:	*F:
*M3/4	*M3/4	*M3/4
*MM40	*MM40	*MM40
!	!LO:TX:t=dolce	!
4r	8.c/L	.
.	16c/Jk	.
=1	=1	=1
*^	*	*
(4c/	2F\	(4aS/	p
.	.	(ccq/	.
8d/L	.	8b-/L)	.
8c/	.	8a/	.
8B-/	4F\	8g/	.
8A/J)	.	8f/J)	.
=2	=2	=2	=2
(4A/	4.C\	(4f/	.
8G/)	.	8e/)	.
*v	*v	*	*
8r	(8c/L	.
4r	8B/ 8d/	.
.	8B-/) 8e/J	.
=3	=3	=3
4A\ 4c\	(8f/L	.
.	16cc/Jk)	.
.	16r	.
*	*^	*
4E\ 4c\	(8cc/L	4g\	.
.	16b-/Jk)	.	.
.	16r	.	.
4F\ 4c\	(8b-/L	4f\	.
.	16a/Jk)	.	.
.	16r	.	.
*	*v	*v	*
=4	=4	=4
4.C\ 4.c\	(4f/ 4a/	.
.	16e/) 16g/	.
.	(16c/LL	.
8r	16d/	.
.	16e/JJ	.
4r	16f/LL	.
.	16f#/	.
.	16g/	.
.	16g#/JJ)	.
=5	=5	=5
*^	*	*
(4c/	2F\	(4aS/	.
.	.	(ccq/	.
8d/L	.	8b-/L)	.
8c/	.	8f/ 8a/	.
8B-/	4F\	8e/ 8g/	.
8A/J)	.	8f/J)	.
*v	*v	*	*
=6	=6	=6
4B-\ 4d\	4f/ (4dd/	.
4B-\ 4c\	4g/ 4ee/	.
*	*^	*
4A\ 4f\	16gg/LL	4cc\	.
.	16ff/	.	.
.	16ee/	.	.
.	16ff/JJ)	.	.
*	*v	*v	*
=7	=7	=7
4B-\ 4f\	(16ee/LL	.
.	16dd/	.
.	16cc/	.
.	16b-/JJ)	.
4c\ 4f\	8.aS/L	.
.	16a/Jk	.
(16C\LL	(16cc/LL	.
16E\	16b-/	.
16G\	16g/	.
16B-\JJ)	16e/JJ)	.
=8	=8	=8
[4F\ (4B-\	(4e/ 4g/	.
8F\] 8A\)	8f/)	.
8r	8r	.
4r	(8.cc\L	.
.	16ff\Jk)	.
=9	=9	=9
*^	*	*
(16G/LL	2.C\	(4ff\	.
16B-/	.	.	.
16c/	.	.	.
16B-/JJ	.	.	.
16G/LL	.	4ee\	.
16B-/	.	.	.
16c/	.	.	.
16B-/JJ	.	.	.
16F/LL	.	8.ffS\L	.
16A/	.	.	.
16c/	.	.	.
16A/JJ)	.	16aa\Jk)	.
=10	=10	=10	=10
(16E/LL	2.C\	(4ccc\	sf
16G/	.	.	.
16c/	.	.	.
16G/JJ	.	.	.
16E/LL	.	16bb\LL	.
16G/	.	16ccc\	.
16c/	.	16ddd\	.
16G/JJ	.	16ccc\JJ	.
16F/LL	.	16bb-\LL	.
16A/	.	16aa\	.
16c/	.	16gg\	.
16A/JJ)	.	16ff\JJ)	.
=11	=11	=11	=11
(16G/LL	2.C\	(4ff\	.
16B-/	.	.	.
16c/	.	.	.
16B-/JJ	.	.	.
16G/LL	.	4ee\	.
16B-/	.	.	.
16c/	.	.	.
16B-/JJ	.	.	.
16A/LL	.	16.ffS\LL	.
16c/	.	.	.
.	.	32gg\k	.
16A/	.	16.aaS\	.
16F/JJ)	.	.	.
.	.	32bb\JJk)	.
*v	*v	*	*
=12	=12	=12
(16C\LL	8ddd\L	.
16E\	.	.
16G\	[8ccc\J	.
16c\JJ	.	.
*clefG2	*	*
16e/LL	16ccc\LL]	pp
16g/	(16bb\	.
16c/	16ddd\	.
16e/JJ	16ccc\JJ	.
16d/LL	16ccc\LL	.
16f/	16bb-\	.
16e/	16aa\	.
16g/JJ)	16bb-\JJ)	.
=13	=13	=13
*^	*	*
(16f/LL	2f\	(4aaS\	.
16cc/	.	.	.
16ff/	.	.	.
16ee/JJ	.	.	.
.	.	(cccq/	.
8dd/L	.	8bb-\L)	.
8cc/	.	8ff\ 8aa\J	.
8b-/	4f\	8ee\ 8gg\L	.
8a/J)	.	8ff\J)	.
*v	*v	*	*
=14	=14	=14
4.B-/ 4.f/	4cc\ (4ee\	.
.	8b-\ 8dd\)	.
8r	8r	.
(8.B-/ 8.e/L	8.dd\ (8.ddd\L	sf
16A/) 16f/Jk	16cc\ 16ccc\Jk)	.
=15	=15	=15
4A/ 4f/	(16ccc\LL	.
.	16fff\	.
.	16eee\	.
.	16ddd\JJ	.
*^	*	*
(16B-/LL	4B-\	16ccc#\LL	.
.	.	(eeeq/	.
16d/	.	16ddd\)	.
16g/	.	16ccc\	.
16b-/JJ)	.	16bb-\JJ	.
(16f/LL	4c\	16aa\LL	.
16a/	.	16ccc\	.
16g/	.	16bb-\	.
16e/JJ)	.	16gg\JJ)	.
*v	*v	*	*
*clefF4	*	*
=16	=16	=16
[4F\ (4e\	4b-\ (4gg\	.
8F\] 8f\)	8a\ 8ff\)	.
8r	8r	.
!	!LO:S:a	!
4r	(4aaS\	.
=17	=17	=17
16rjj	4ddd/)	.
16djj\LL (16fjj\	.	.
16ejj\ 16gjj\	.	.
16fjj\JJ 16ajj\)	.	.
!	!LO:TX:t=m.d.	!
16rjj	4Dj/	.
16fjj\ (16ajj\LL	.	.
16ejj\ 16g#jj\	.	.
16fjj\ 16ajj\JJ)	.	.
16rjj	8.dd/ 8.ddd/L	.
16fjj\ (16ajj\LL	.	.
16ejj\ 16gjj\	.	.
16djj\ 16fjj\JJ)	16dd/ 16ddd/Jk	.
=18	=18	=18
!	!LO:S:a	!
16rjj	(4dd/ 4ddd/	.
(16ejj\ 16gjj\LL	.	.
16fjj\ 16ajj\	.	.
16gjj\ 16b-jj\JJ)	.	.
16rjj	8cc#/ 8ccc#/)	.
16gjj\ (16b-jj\LL	.	.
16f#jj\ 16ajj\	8r	.
16gjj\ 16b-jj\JJ)	.	.
16rjj	8.ccc#S/L	.
16gjj\ (16b-jj\LL	.	.
16fjj\ 16ajj\	.	.
16ejj\ 16gjj\JJ)	16ddd/Jk	.
=19	=19	=19
16rjj	4eee/	.
16c#jj\ (16ejj\LL	.	.
16djj\ 16fjj\	.	.
16ejj\ 16gjj\JJ)	.	.
!	!LO:TX:t=m.d.	!
16rjj	4AAj/	.
16ejj\ (16gjj\LL	.	.
16d#jj\ 16f#jj\	.	.
16ejj\ 16gjj\JJ)	.	.
16rjj	8.gg/L	.
16ejj\ (16gjj\LL	.	.
16djj\ 16fnjj\	.	.
16c#Xjj\ 16ejj\JJ)	16gg/Jk	.
=20	=20	=20
!	!LO:S:a	!
16rjj	(4gg/	.
(16djj\ 16fjj\LL	.	.
16ejj\ 16gjj\	.	.
16fjj\ 16ajj\JJ)	.	.
16rjj	8ff/)	.
(16fjj\ 16ajj\LL	.	.
16ejj\ 16gjj\	8r	.
16djj\ 16fjj\JJ)	.	.
!	!LO:S:a	!
16rjj	(4ffS/	.
(16djj\ 16fjj\LL	.	.
16c#jj\ 16ejj\	.	.
16djj\ 16fjj\JJ)	.	.
=21	=21	=21
16rjj	4ddd/)	.
16Bjj\ (16djj\LL	.	.
16cnXjj\ 16ejj\	.	.
16djj\ 16fjj\JJ)	.	.
!	!LO:TX:t=m.d.	!
16rjj	4GGj/	.
16djj\ (16fjj\LL	.	.
16cjj\ 16ejj\	.	.
16Bjj\ 16djj\JJ)	.	.
16r	8.ff\ 8.fff\L	.
16B\ (16d\LL	.	.
16A#\ 16c#\	.	.
16B\ 16d\JJ)	16ff\ 16fff\Jk	.
*clefG2	*	*
=22	=22	=22
16r	8ff\ (8fff\L	<
(16cnX/ 16e/LL	.	(
16B/ 16d#/	8ee\ 8eee\J)	(
16c/ 16e/JJ)	.	(
16r	8ee\ (8eee\L	(
(16d/ 16f/LL	.	(
16c#/ 16e/	8dd\ 8ddd\J)	(
16d/) 16f/JJ	.	(
16r	8dd\ (8ddd\L	(
(16e/ 16g/LL	.	(
16d#/ 16f#/	8cc\ 8ccc\J)	(
16e/) 16g/JJ	.	[
=23	=23	=23
*^	*^	*
!	!	!	!LO:S:a	!
4g/	2fnX\	4dd\	(8ccc/L	sf
.	.	.	[8bb/J)	.
!	!	!	!LO:S:a	!
(8a-z/L	.	4ryy	(32bb\LLL]	.
.	.	.	32ccc\	.
.	.	.	32ddd\	.
.	.	.	32ccc\	.
8g/	.	.	32bb\	.
.	.	.	32ccc\	.
.	.	.	32ddd\	.
.	.	.	32bb\JJJ)	.
*	*	*v	*v	*
8ee/	4e\ 4g\	(16ccc\LL	.
.	.	16ddd\	.
8cc/J)	.	16eee\	.
.	.	16ccc\JJ)	.
=24	=24	=24	=24
!	!	!LO:S:a	!
.	.	(32bbnq/LLL	.
.	.	32cccq/	.
.	.	32dddq/JJJ	.
!	!	!LO:S:a	!
4g/ 4dd/	2f\	(8ccc/L)	f
.	.	[8bbnX/J)	.
(8a-z/L	.	(32bb\LLL]	.
.	.	32ccc\	.
.	.	32ddd\	.
.	.	32ccc\	.
8g/	.	32bb\	.
.	.	32ccc\	.
.	.	32ddd\	.
.	.	32bb\JJJ	.
8ee/	4e\ 4g\	32ccc\LLL	.
.	.	32ddd\	.
.	.	32eee\	.
.	.	32ddd\	.
8cc/J)	.	32ccc\	.
.	.	32bb\	.
.	.	32aa\	.
.	.	32gg\JJJ)	.
*v	*v	*	*
=25	=25	=25
8f/ 8a/	(32gg#\LLL	.
.	32aa\	.
.	32ccc\	.
.	32bb\	.
8r	32aa\	.
.	32gg\	.
.	32ff\	.
.	32ee\JJJ	.
4r	32gg\LLL	.
.	32ff\	.
.	32aa\	.
.	32gg\	.
.	32ff\	.
.	32ee\	.
.	32dd\	.
.	32cc#\JJJ	.
*clefF4	*	*
8F\ 8A\ 8d\	32dd\LLL	.
.	32ee\	.
.	32ff\	.
.	32ee\	.
8r	32gg\	.
.	32ff\	.
.	32ee\	.
.	32dd\JJJ)	.
=26	=26	=26
8G\ 8c\ 8e\	(32ccnX\LLL	.
.	32dd\	.
.	32cc\	.
.	32b\	.
8r	32cc\	.
.	32g\	.
.	32a\	.
.	32b\JJJ	.
4r	32cc\LLL	.
.	32dd\	.
.	32ee\	.
.	32ff\	.
.	32gg\	.
.	32ff#\	.
.	32gg\	.
.	32ff#\JJJ)	.
8G\ 8B\ 8f\	(16gg'\LL	pp
.	16ff'\	.
8r	16ee'\	.
.	16dd'\JJ)	.
=27	=27	=27
8c\ 8e\	8cc\	.
*	*clefF4	*clefF4
8r	(8c\	.
4r	8A\ 8f\L	.
.	8G\ 8e\	.
4r	8F\ 8A\ 8d\	.
.	8E\ 8G\ 8c\J)	.
=28	=28	=28
*	*^	*
[4GGG/ [4GG/	(4c/	2D\ 2F\ 2G\	sfp
16GGG/] 16GG/LL]	4B/)	.	.
(32AAA/L	.	.	.
32BBB/	.	.	.
32CC/	.	.	.
32DD/	.	.	.
32EE/	.	.	.
32FF/JJJ)	.	.	.
(32GG/LLL	4B/	4D\ 4F\ 4G\	.
32FF#/	.	.	.
32GG/	.	.	.
32AA/	.	.	.
32GG/	.	.	.
32FF/	.	.	.
32EE/	.	.	.
32DD/JJJ)	.	.	.
*	*v	*v	*
=29	=29	=29
8CC/	8E\ 8c\	.
*	*clefG2	*clefG2
8r	(24cS/LL	.
.	24e/	.
.	24g/JJ)	.
24r	(24g/LL	.
(24A\LL	24f/JJ)	.
24c\JJ)	24r	.
24r	(24f/LL	.
(24G\LL	24e/JJ)	.
24B\JJ)	24r	.
24r	(24e/LL	.
(24F\LL	24d/JJ)	.
24A\JJ)	24r	.
24r	24d/LL	.
(24E\LL	24c/JJ	.
24G\JJ)	24r	.
*	*clefF4	*clefF4
=30	=30	=30
*	*^	*
[4GGG/ [4GG/	(4c/	2D\ 2F\ 2G\	sfp
16GGG/] 16GG/LL]	4Bn/)	.	.
(32AA/L	.	.	.
32BB/	.	.	.
32C/	.	.	.
32D/	.	.	.
32E/	.	.	.
32F/JJJ)	.	.	.
*	*v	*v	*
*	*clefG2	*
(32G\LLL	4d/ 4f/ 4bnX/	.
32F#\	.	.
32G\	.	.
32A\	.	.
32G\	.	.
32F\	.	.
32E\	.	.
32D\JJJ)	.	.
=31	=31	=31
*^	*	*
4r	2.C\	8e/ 8cc/	.
.	.	[8cz/	.
!LO:S:b	!	!	!
(8B-X/L	.	(16c/LL]	.
.	.	32d/L	.
.	.	32e/	.
8G/J	.	32f/	.
.	.	32g/	.
.	.	32a/	.
.	.	32b-X/JJJ	pp
8E/L	.	32cc/LLL	.
.	.	32b/	.
.	.	32cc/	.
.	.	32dd/	.
8c/J)	.	32cc/	.
.	.	32b-/	.
.	.	32a/	.
.	.	32g/JJJ)	.
=32	=32	=32	=32
4c/	2F\	4aS/	p
.	.	(ccq/	.
(8d/L	.	(8b-/L)	.
8c/	.	8a/	.
8B-/	4F\	8g/	.
8A/J)	.	8f/J)	.
=33	=33	=33	=33
*	*	*^	*
(4A/	4.C\	(4f/	4.c\	.
8G/)	.	8e/)	.	.
8r	4.ryy	(8c/L	4.ryy	.
4r	.	8B/ 8d/	.	.
.	.	8B-/) 8e/J	.	.
*v	*v	*	*	*
=34	=34	=34	=34
4A\ 4c\	(16f/LL	4f\	.
.	16cc/)	.	.
.	16cc'/	.	.
.	16cc'/JJ	.	.
4E\ 4c\	(16cc/LL	4g\	.
.	16b-/)	.	.
.	16b-'/	.	.
.	16b-'/JJ	.	.
4F\ 4c\	(16b-/LL	4f\	.
.	16a/)	.	.
.	16a'/	.	.
.	16a'/JJ	.	.
=35	=35	=35	=35
4.C\ 4.c\	(8.a/L	4f\	.
.	32b-/LL	.	.
.	32a/JJJ)	.	.
.	8g/	8e\	.
!	!LO:S:b	!	!
8r	(24c'/LL	4.ryy	.
.	24c#'/	.	.
.	24d'/JJ	.	.
4r	24e-'/LL	.	.
.	24e'/	.	.
.	24f'/JJ	.	.
.	24f#'/LL	.	.
.	24g'/	.	.
.	24g#'/JJ)	.	.
*	*v	*v	*
=36	=36	=36
*^	*	*
!LO:S:b	!	!	!
(24F/LL	4F\	4aS/	.
24A/	.	.	.
24c/	.	.	.
24f/	.	.	.
24e/	.	.	.
24e-/JJ)	.	.	.
4ryy	24r	(24cc/LL	.
.	(24d\LL	24b-/JJ)	.
.	24f\JJ)	24r	.
.	24r	(24b-/LL	.
.	(24f\LL	24a/JJ)	.
.	24c\JJ)	24r	.
4ryy	24r	(24a/LL	.
.	(24B-\LL	24g/JJ)	.
.	24e\JJ)	24r	.
.	24r	(24g/LL	.
.	(24c\LL	24f/JJ)	.
.	24A\JJ)	24r	.
*v	*v	*	*
*clefG2	*	*
=37	=37	=37
*Xtuplet	*	*
(24B-/LL	(4dd\	<
24d/	.	(
24f/	.	(
24b-/	.	(
24f/	.	(
24d/JJ)	.	(
(24B-/LL	4eeS\	(
24c/	.	(
24e/	.	(
24g/	.	(
24e/	.	(
24c/JJ)	.	[
(24A/LL	32gg\LLL	>
.	32ff\	)
24c/	.	)
.	32ee\	)
24f/	.	)
.	32ff\	)
24a/	32ee\	)
.	32ff\	)
24f/	.	)
.	32gg\	)
24c/JJ)	.	)
.	32ff\JJJ)	)
=38	=38	=38
(24B-/LL	(32ee\LLL	)
.	32dd\	)
24d/	.	)
.	32cc#\	)
24f/	.	)
.	32dd\	)
24g/	32ee\	)
.	32dd\	)
24f/	.	)
.	32cc\	)
24d/JJ)	.	)
.	32b-\JJJ)	]
*clefF4	*	*
(24C\LL	(4a/	pp
24F\	.	.
24A\	.	.
24c\	.	.
24A\	.	.
(24F\JJ)	.	.
24C\LL	16cc/LL	.
24G\	.	.
.	16b-/	.
24B-\	.	.
24c\	16g/	.
24B-\	.	.
.	16e/JJ)	.
24G\JJ)	.	.
=39	=39	=39
(24F\LL	(4g/	.
24B-\	.	.
24c\	.	.
24e\	.	.
24c\	.	.
24B-\JJ)	.	.
(24F\LL	8f/)	.
24A\	.	.
24c\	.	.
24f\	8r	.
24c\	.	.
24B-\JJ)	.	.
(24A\LL	(8.cc\L	.
24c\	.	.
24B-\	.	.
24A\	.	.
24G\	.	.
.	16ff\Jk)	.
24F\JJ)	.	.
=40	=40	=40
(24C\LL	(4ff\	.
24G\	.	.
24B-\	.	.
24c\	.	.
24B-\	.	.
24G\JJ)	.	.
(24C\LL	4ee\	.
24G\	.	.
24B-\	.	.
24c\	.	.
24B-\	.	.
24G\JJ)	.	.
(24C\LL	8.ffS\L	.
24F\	.	.
24A\	.	.
24c\	.	.
24A\	.	.
.	16aa\Jk)	.
24F\JJ)	.	.
=41	=41	=41
(24C\LL	(4ccc\	.
24E\	.	.
24G\	.	.
24c\	.	.
24G\	.	.
24E\JJ)	.	.
(24C\LL	16bb\LL	.
24E\	.	.
.	16ccc\	.
24G\	.	.
24c\	16ddd\	.
24G\	.	.
.	16ccc\JJ	.
24E\JJ)	.	.
(24C\LL	16bb-\LL	.
24F\	.	.
.	16aa\	.
24A\	.	.
24c\	16gg\	.
24A\	.	.
.	16ff\JJ)	.
24F\JJ)	.	.
=42	=42	=42
(24C\LL	4ff\	.
24G\	.	.
24B-\	.	.
24c\	.	.
24B-\	.	.
24G\JJ)	.	.
(24C\LL	(32ee\LLL	.
.	32ff\	.
24G\	.	.
.	32ee\	.
24B-\	.	.
.	32dd\	.
24c\	32ee\	.
.	32cc\	.
24B-\	.	.
.	32dd\	.
24G\JJ)	.	.
.	32ee\JJJ	.
(24C\LL	16.ffS\LL	.
24F\	.	.
24A\	.	.
.	32gg\k	.
24c\	16.aaS\	.
24A\	.	.
24F\JJ)	.	.
.	32bb\JJk)	.
=43	=43	=43
(24C\LL	(8ddd\L	.
24E\	.	.
24G\	.	.
24c\	8ccc\J)	.
24e\	.	.
24d\JJ)	.	.
*clefG2	*	*
(24c/LL	24r	.
24e/	(24bb\LL	.
24g/	24ccc\JJ)	.
24cc/	24r	.
24c/	(24ddd\LL	.
24e/JJ	24ccc\JJ)	.
24d/LL	24r	.
24f/	(24ccc\LL	.
24cc/	24bbnX\JJ)	.
24e/	24r	.
24g/	(24ccc\LL	.
24cc/JJ)	24bb-\JJ)	.
=44	=44	=44
*^	*	*
(24f/LL	2f\	8.aa\L	.
24a/	.	.	.
24cc/	.	.	.
24ff/	.	.	.
24ee/	.	.	.
.	.	16aaS\Jk	.
24ee-/JJ	.	.	.
24dd/LL	.	24r	.
24ff/	.	(24ccc\LL	.
24dd/JJ	.	24bb-\JJ)	.
24cc/LL	.	24r	.
24ee/	.	(24bb-\LL	.
24cc/JJ	.	24aa\JJ)	.
24b-/LL	4f\	24r	.
24dd/	.	(24aa\LL	.
24b-/JJ	.	24gg\JJ)	.
24a/LL	.	24r	.
24cc/	.	(24gg\LL	.
24a/JJ)	.	24ff\JJ)	.
*v	*v	*	*
*clefF4	*	*
=45	=45	=45
*^	*	*
2f/	(4.B-\	4cc\ (4ee\	.
.	.	4b-\ 4dd\)	.
.	8A\)	.	.
4f/	(8.G#\ 8.B\L	8.dd\ (8.ddd\L	sf
.	16A\) 16c\Jk	16cc\ 16ccc\Jk)	.
=46	=46	=46	=46
4ryy	4A\ 4c\ 4f\	(16ccc\LK	.
.	.	8fff\	sf>
.	.	32eee\LL	)
.	.	32ddd\JJJ)	)
*clefG2	*clefG2	*	*
8d/L	4B-\	(32ccc#\LLL	)
.	.	32eee\	)
.	.	32ddd\	)
.	.	32ccc\	)
8g/	.	32bb-\	)
.	.	32aa\	)
.	.	32ccc\	)
.	.	32bb-\JJJ	]
8e/	4c\	32aa\LLL	pp
.	.	32gg\	.
.	.	32bb-\	.
.	.	32gg\	.
8b-/J	.	32ff\	.
.	.	32ee\	.
.	.	32gg\	.
.	.	32ee\JJJ)	.
=47	=47	=47	=47
(4b-/	4.f\	4ee\ (4gg\	.
8a/)	.	16ff\)	.
.	.	(16cc\LL	.
8r	4.ryy	16ff\	.
.	.	16cc\JJ	.
4r	.	16b-/LL	.
.	.	16a/	.
.	.	16g/	.
.	.	16f/JJ)	.
*clefF4	*clefF4	*	*
=48	=48	=48	=48
*	*	*^	*
4C/ 4G/	2BB-\	(8f/L	2ryy	sf
.	.	[8e/J)	.	.
!LO:S:b	!	!	!	!
(8D-z/L	.	(32e/LLL]	.	.
.	.	32f/	.	.
.	.	32g/	.	.
.	.	32f/	.	.
8C/	.	32e/	.	.
.	.	32f/	.	.
.	.	32g/	.	.
.	.	32e/JJJ)	.	.
8A/)	4AA\	(16f/LL	4c\	.
.	.	16g/	.	.
8F/J	.	16a/	.	.
.	.	16f/JJ)	.	.
=49	=49	=49	=49	=49
4C/ 4G/	2BB-\	(8f/L	2ryy	sf
.	.	[8e/J)	.	.
!LO:S:b	!	!	!	!
(8D-z/L	.	(32e/LLL]	.	.
.	.	32f/	.	.
.	.	32g/	.	.
.	.	32f/	.	.
8C/	.	32e/	.	.
.	.	32f/	.	.
.	.	32g/	.	.
.	.	32e/JJJ)	.	.
8A/)	4AA\	(32f/LLL	4c\	.
.	.	32a/	.	.
.	.	32cc/	.	.
.	.	32b-/	.	.
8F/J	.	32a/	.	.
.	.	32g/	.	.
.	.	32f/	.	.
.	.	32e-/JJJ)	.	.
*v	*v	*	*	*
*	*v	*v	*
=50	=50	=50
!	!LO:S:a	!
8BB-/ 8D/	(32d/LLL	.
.	32e-/	.
.	32d/	.
.	32c#/	.
8r	32d/	.
.	32e/	.
.	32f/	.
.	32f#/JJJ	.
4r	32g\LLL	.
.	32a\	.
.	32b-\	.
.	32cc\	.
.	32dd\	.
.	32ee\	.
.	32ff\	.
.	32ff#\JJJ	.
*clefG2	*	*
8B-/ 8d/ 8g/	32gg\LLL	.
.	32aa\	.
.	32bb-\	.
.	32ccc\	.
8r	32ddd\	.
.	32eee\	.
.	32fff\	.
.	32ddd\JJJ)	.
=51	=51	=51
8c/ 8f/ 8a/	(32ccc\LLL	.
.	32ddd\	.
.	32ccc\	.
.	32bb\	.
8ryy	32ccc\	.
.	32fff\	.
.	32eee\	.
.	32ddd\JJJ	.
4r	32ccc\LLL	.
.	32bb\	.
.	32bb-\	.
.	32aa\	.
.	32gg\	.
.	32ff\	.
.	32ee\	.
.	32dd\JJJ)	.
*clefF4	*	*
4C\ 4E\ 4B-\	(16cc'\LL	pp
.	16b-'\	.
.	16a'\	.
.	16g'\JJ)	.
*	*clefF4	*clefF4
=52	=52	=52
*^	*	*
*	*	*^	*
8r	2FF\	[2f/	8r	.
(8AA/L	.	.	(8F\L	.
8D/	.	.	8B-\	.
8C/	.	.	8A\	.
8BB-/	4ryy	8f/]	8G\	.
16FF/L	.	(16c/LL	8F\J)	.
16AA/JJ)	.	16f/JJ)	.	.
*	*	*v	*v	*
*	*	*clefG2	*
=53	=53	=53	=53
2G/ 2B-/ 2c/	[4CC\ [4C\	4f/	sfp
.	16CC\] 16C\LL]	4e/	.
!	!LO:S:a	!	!
.	(32DD\L	.	.
.	32EE\	.	.
.	32FF\	.	.
.	32GG\	.	.
.	32AA\	.	.
.	32BB-\JJJ)	.	.
!	!LO:S:a	!	!
4ryy	(32C\LLL	4G/ 4B-/ 4c/ 4e/	.
.	32BB\	.	.
.	32C\	.	.
.	32D\	.	.
.	32C\	.	.
.	32BB-\	.	.
.	32AA\	.	.
.	32GG\JJJ)	.	.
*v	*v	*	*
=54	=54	=54
8FF/	(24A/ 24c/ 24f/LL	.
.	24A/	.
.	24c/JJ)	.
8r	(24f/LL	.
.	24a/	.
.	24cc/JJ)	.
*tuplet	*	*
24r	(24cc/LL	.
(24e-\LL	24f/	.
24d\JJ)	24b-/JJ)	.
24r	(24b-/LL	.
(24d\LL	24enX/	.
24c\JJ)	24a/JJ)	.
24r	(24a/LL	.
(24c\LL	24d/	.
24B-\JJ)	24g/JJ)	.
24r	(24g/LL	.
(24B-\LL	24c/	.
24A\JJ)	24f/JJ)	.
=55	=55	=55
*^	*^	*
2G/ 2B-/ 2c/	[4CC\ [4C\	2ryy	(4f/	sfp
.	16CC\] 16C\LL]	.	4e/)	.
!	!LO:S:a	!	!	!
.	(32D\L	.	.	.
.	32E\	.	.	.
.	32F\	.	.	.
.	32G\	.	.	.
.	32A\	.	.	.
.	32B-\JJJ)	.	.	.
!	!LO:S:a	!	!	!
4ryy	(32c\LLL	4cc/ 4ee/	4g\ 4b-\	.
.	32B\	.	.	.
.	32c\	.	.	.
.	32d\	.	.	.
.	32c\	.	.	.
.	32B-\	.	.	.
.	32A\	.	.	.
.	32G\JJJ)	.	.	.
*v	*v	*	*	*
*	*v	*v	*
=56	=56	=56
(48F\LLL	16r	p
48A\	.	.
48c\JJJ)	.	.
16r	(48f/LLL	.
.	48a/	.
.	48cc/JJJ)	.
*clefG2	*	*
(48f/LLL	16r	.
48a/	.	.
48cc/JJJ)	.	.
16r	(48ff\LLL	.
.	48aa\	.
.	48ccc\JJJ)	.
16r	(48ccc\LLL	.
.	48aa\	.
.	48bb-\JJJ)	.
(48cc#\LLL	16r	.
48dd\	.	.
48ff\JJJ)	.	.
16r	(48bb-\LLL	.
.	48gg#\	.
.	48aa\JJJ)	.
(48b\LLL	16r	.
48cc\	.	.
48ee\JJJ)	.	.
16r	(48aa\LLL	.
.	48ff#\	.
.	48gg\JJJ)	.
(48a\LLL	16r	.
48b-\	.	.
48dd\JJJ)	.	.
16r	(48gg\LLL	.
.	48ee\	.
.	48ff\JJJ)	.
(48g#\LLL	16r	.
48a\	.	.
48cc\JJJ)	.	.
=57	=57	=57
4.c/ 4.g/ 4.b-/	(4ff\	sf
.	(32ee\LLL)	.
.	32cc'\	.
.	32dd'\	.
.	32ee'\	.
8r	32ff'\	.
.	32gg'\	.
.	32aa'\	.
.	32bb-'\JJJ)	.
4c/ 4e/ 4g/ 4b-/	(32ccc\LLL	.
.	32bb\	.
.	32ccc\	.
.	32ddd\	.
.	32ccc\	.
.	32bb-\	.
.	32aa\	.
.	32gg\JJJ)	.
=58	=58	=58
8f/ 8a/	8ff\	.
8r	8r	.
4r	16ccS\LL	pp
.	(32dd'\L	.
.	32ee'\	.
.	32ff'\	.
.	32gg'\	.
.	32aa'\	.
.	32bb-'\JJJ)	.
4c/ 4e/ 4g/ 4b-/	(32ccc\LLL	.
.	32bb\	.
.	32ccc\	.
.	32ddd\	.
.	32ccc\	.
.	32bb-\	.
.	32aa\	.
.	32gg\JJJ)	.
=59	=59	=59
*^	*	*
(4b-/	2.f\	[4.gg\	.
4cc/	.	.	.
.	.	(16.ggS\LL]	<
.	.	32aa\JJk	(
4dd-/)	.	16ccc\LL	[>
.	.	16bb-\	)
.	.	16gg\	)
.	.	16ee\JJ)	>
=60	=60	=60	=60
(4b-/ 4dd-/	4.f\	(4ee\ 4gg\	pp
8a/ 8cc/)	.	8ff\)	.
8r	4.ryy	8r	.
4r	.	4r	.
*v	*v	*	*
*clefF4	*	*
=61	=61	=61
8C'\ 8E'\ 8G'\ 8c'\	8g'\ 8b-'\ 8cc'\ 8ee'\ 8gg'\	pp
8r	8r	.
8FF'/ 8AA'/ 8C'/ 8F'/	8a'\ 8cc'\ 8ff'\	.
8r;	8r;	.
==	==	==
*-	*-	*-
!!!ENC: Craig Stuart Sapp
!!!END: 2004/04/06/
!!!ONB: notes proofread, dynamics not, some slur problems
!!!hum2abc: --spacing 2.0  -s 0.72
